static/img/icon_exit.svg

<svg width="24" height="24" viewBox="0 0 24 24" fill="none" xmlns="http://www.w3.org/2000/svg">
<path d="M18.75 5.25H14.25M18.75 5.25L12 12M18.75 5.25V9.75" stroke="black" stroke-width="1.125" stroke-linecap="round" stroke-linejoin="round"/>
<path d="M18.75 12.75V17.25C18.75 18.0784 18.0784 18.75 17.25 18.75H6.75C5.92157 18.75 5.25 18.0784 5.25 17.25V6.75C5.25 5.92157 5.92157 5.25 6.75 5.25H11.25" stroke="black" stroke-width="1.125" stroke-linecap="round"/>
</svg>

<svg width="24" height="24" fill="none" xmlns="http://www.w3.org/2000/svg"><path d="M18.75 5.25h-4.5m4.5 0L12 12m6.75-6.75v4.5" stroke="#000" stroke-width="1.125" stroke-linecap="round" stroke-linejoin="round"/><path d="M18.75 12.75v4.5a1.5 1.5 0 0 1-1.5 1.5H6.75a1.5 1.5 0 0 1-1.5-1.5V6.75a1.5 1.5 0 0 1 1.5-1.5h4.5" stroke="#000" stroke-width="1.125" stroke-linecap="round"/></svg>
